;FLAVOR:UltiGCode
;MATERIAL:395

;Layer count: 1
;LAYER:0
M107
G11


G0 F9000 X40.00  Y112.50 Z0.10
G2 F1000  X40.00  Y112.50 I75.00 E37.70

G0 F9000 X39.20  Y112.50 Z0.10
G2 F1000  X39.20  Y112.50 I75.80 E75.80

G0 F9000 X38.40  Y112.50 Z0.10
G2 F1000  X38.40  Y112.50 I76.60 E114.30

G0 F9000 X37.60  Y112.50 Z0.10
G2 F1000  X37.60  Y112.50 I77.40 E153.21

G0 F9000 X36.80  Y112.50 Z0.10
G2 F1000  X36.80  Y112.50 I78.20 E192.52

G0 F9000 X36.00  Y112.50 Z0.10
G2 F1000  X36.00  Y112.50 I79.00 E232.23

G0 F9000 X35.20  Y112.50 Z0.10
G2 F1000  X35.20  Y112.50 I79.80 E272.34

G0 F9000 X34.40  Y112.50 Z0.10
G2 F1000  X34.40  Y112.50 I80.60 E312.85

G0 F9000 X33.60  Y112.50 Z0.10
G2 F1000  X33.60  Y112.50 I81.40 E353.77

G0 F9000 X32.80  Y112.50 Z0.10
G2 F1000  X32.80  Y112.50 I82.20 E395.09


M107
G0 F15000 X97.69 Y88.49 Z85.00
M25

